X: 01028
T: COUREURS DES BOIS
T: (Woodsman's Reel)
C: Bob McQuillen Oct'75
B: Bob's Note Book 1 #28
R: reel
Z: 2019 John Chambers <jc:trillian.mit.edu>
M: C
L: 1/8
K: G
Bc \
| dggd BGBc | dgdB G2Bc | dggd BGFG | A2d2 D2Bc |
| dggd BGBc | dgdB G2FE | DAFA dcBA | B2G2 G2 :|
|: GA \
| BGFG EGDG | BGEG D2GA | BGFG edcB | c2A2 A2GA |
| BGFG EGDG | BGEG D2GA | BGFG edcB | AGAB G2 :|
%%begintext align
%% J'aime beaucoup les bois, moi.
%%endtext

%%sep 1 1 500

%%sep 1 1 500

